X:1
T:8 Lieder und Gesänge, Op.57
T:Ach, wende diesen Blick
T:4.  Ach, wende diesen Blick
T:Johannes Brahms
T:Joseph von Eichendorff
T:8 Lieder und Gesänge, Op.57
T:OpenScore (CC0)
T:OpenScore (CC0)
T:OpenScore (CC0)
C:Johannes Brahms
Z:Joseph von Eichendorff
Z:OpenScore (CC0)
%%score 1 { ( 2 3 ) | ( 4 5 ) }
L:1/8
Q:1/4=60
M:3/4
K:Ab
V:1 treble nm="Singstimme\nVoice"
V:2 treble nm="Pianoforte"
V:3 treble 
V:4 bass 
V:5 bass 
V:1
"^Ziemlich langsam" c2 e d c =B | c2 (gf) d B | A4 G2 | F2 z2 F2 | F F A3 A | G G e3 e | %6
w: Ach, wen- de die- sen|Blick, wen- * de dies|An- ge-|sicht! Das|Inn- re mir mit|e- wig neu- er|
 =d3 G B d | g3 f =e f | f4 _d2 | c2 z f =e f | f3 _e d A | A4 G2 | F4 z2 | z6 | F2 _G2 F2 | %15
w: Glut, mit e- wig|neu- em Harm er-|fül- le|nicht, mit e- wig|neu- em Harm er-|fül- le|nicht!||Wenn ein- mal|
 z2 (EF) (EF) | _G4 F2 | (B3 A) (_GF) | (F2 E2) z2 | A2 B2 A2 | A3/2 A/ (=GA) (GA) | (B2 d2) c2 | %22
w: die * ge- *|quäl- te|See- * le *|ruht, *|und mit so|fie- be- ri * scher *|Wil- * de|
 c z/ c/ (=Bc) (Bc) | e2 =d e d e | g4 =d2 | f3 =e =B c | (d4 c2) | z6 | z2 z2 d2 | %29
w: nicht in mei- * nen *|A- dern, in mei- nen|A- dern|rollt das hei- sse|Blut *||Ein|
 c3/2 c/ g f d B | A4 G2 | F2 z2 F2 | F F A3 A | G G e3 e | =d3 G B d | g3 f =e f | f4 _d2 | %37
w: Strahl, ein flüch- ti- ger, von|dei- nem|Licht, er|we- cket auf des|Wehs ge- sam- te|Wut, das schlan gen-|gleich mich in das|Her- ze|
 c2 z f =e f | f3 _e d A | A4 G2 | F4 z2 | !fermata!z6 |] %42
w: sticht, das schlan- gen-|gleich mich in das|Her- ze|sticht.||
V:2
 c2 (edc=B) | c2 (gfdB) | (A4 G2) | F6 | (3[B,EF]DB, (3[CA]A,F, z2 | (3[CFG]E=D (3[EGc]CG, z2 | %6
 (3[Gc=d]B=A (3[Bdg]G=D z2 |!f! (3^CG^c (3=DF=d (3^C=A^c |!>(! [_D_d]3 z!>)! z2 | %9
!>(! [Cc]3 z!>)! z2 |!>(! ([Dd]3 z!>)! (3_AFA,) | ([=B,F]2 (3CA,F,)!>(! C2 | C4!>)!!>(! [FA]2- | %13
 [FA]4!>)! [_G,E_G]2 |"^legato ed espressivo"!<(! [F,F]2!<)!!>(! [_G,_G]2!>)! [F,F]2 | %15
[K:bass] x2 [B,D]2 [B,D]2 | (DB,CA,DC) |[K:treble] B3 A_GF | F2 E2 E2 | %19
!<(! ([A,DA]2!<)!!>(! [B,DB]2!>)! [A,DA]2) | %20
"^sempre cresc. e più agitato"!<(! [A,DFA]2 ([=G,=G][A,A][G,G][A,A])!<)! | %21
!<(! ([B,FB]2!<)!!>(! [D=Ed]2!>)! [CFc]2) | [CFc]2 ([=B,=B][Cc][B,B][Cc]) | %23
!<(! [EAe]2 ([=D=d][Ee][Dd]!<)![Ee]) |!f! [G=B=dg]2- (3:2:2[GBdg]2 (G (3[Bd])zG- | %25
!f! x4 (3:2:2=B2 c |!>(! (d4 c2-) | c2!>)! c4 |"^espress."!p! c2 (edc=B) | c2!>(! (gfd!>)!B) | %30
 (A4!>(! G2) | F6!>)! | (3[B,EF]DB, (3[CA]A,F,"_cresc." z2 | (3[CFG]E=D (3[EGc]CG, z2 | %34
 (3[Gc=d]B=A (3[Bdg]G=D z2 |!f! (3^CG^c (3=DF=d (3^C=A^c |!>(! [_D_d]3 z!>)! z2 | %37
!>(! [Cc]3 z!>)! z2 |!>(! [Dd]3 z!>)! z2 |!>(! [=B,F]2 (3(CA,!>)!F,)[K:bass] C2 |!<(! C2 x4!<)! | %41
 z2[K:treble]!f! !fermata![FAcf]4 |] %42
V:3
 F2 F4 | F2 [FG]4 | (F2!>(! =E4) | ([DF]2!>)! [C_E]4) | x6 | x6 | x6 | x6 | =A2 (3BFD x2 | %9
 G2 (3_AFC x2 | =A2 (3BFD x2 | x6 | x6 | x6 | (DCB,DA,D) | %15
[K:bass] [F,B,DF]2 ([E,E][F,F][E,E][F,F]) | [_G,_G]4 [F,F]2 |[K:treble] (B,CD=DE_D) | (DB,DCB,C) | %19
 x6 | x2 [DF]2 [DF]2 | x6 | x2 F2 F2 | x2 A2 A2 | x6 | [G_B_df]2- [GBdf] =e (3=B[=EG] z | %26
 [=EG_B]6- | [EGB]6 | F2 F4 | F2 [FG]4 | (F2 =E4) | (([DF]2 [C_E]4)) | x6 | x6 | x6 | x6 | %36
 =A2 (3BFD x2 | G2 (3_AFC x2 | =A2 (3(BFD (3_AFA,) | x4[K:bass] (3(_B,G,=E,) | %40
 B,2 (3(A,G,F, (3C,A,,[I:staff +1]F,,) | x2[I:staff -1][K:treble] x4 |] %42
V:4
"^espress." C2 B,2 CD | [A,C]2 [B,D]4 | x2 B,4 | (([D,A,]2 [=A,,F,]4)) | [B,,F,]2 F,,2 (3C,A,,F,, | %5
 C,,2 C,2 (3E,C,C,, | G,,2 G,2 (3B,G,G,, | [=A,,,=A,,]2 [A,,=A,]2 [F,,,F,,]2 | %8
 (3(B,,,B,,F,) z2 (3B,F,B,, | (3(F,,,F,,C,) z2 (3A,F,F,, | (3(B,,,B,,F,) z2 [=B,,,=B,,]2 | %11
 (3(C,,A,,C, F,) z (3(_B,G,=E,) | (B,4 A,2-) | A,2 x4 | (D,C,B,,D,A,,D,) | (_G,,D,- D,2 D,2) | %16
 (D,B,,C,A,,D,C,) | (B,,C,D,=D,E,_D,) | (D,B,,D,C,B,,C,) | (F,D,_G,D,F,D,) | F,D, F,2 F,2 | %21
 (F,D,G,=E,F,C,) | A,F, A,2 A,2 | A,F, =B,2 B,2 | (3(=D,,=D,G, (3=B,=D) z (3(G,,,G,,) z | %25
 (3(C,,,C,,G,,(3C,G,_B,) (3:2:2x2 C | (D4 C2-) | C2 C4 | C2 (B,2 D2) | [A,C]2 [B,,G,D]4 | %30
 (C2 B,4) | (([D,A,]2 [=A,,F,]4)) | [B,,F,]2 F,,2 (3C,A,,F,, | C,,2 C,2 (3E,C,C,, | %34
 G,,2 G,2 (3B,G,G,, | [=A,,,=A,,]2 [A,,=A,]2 [F,,,F,,]2 | (3(B,,,B,,F,) z2 (3B,F,B,, | %37
 (3(F,,,F,,C,) z2 (3A,F,F,, | (3(B,,,B,,F,) z2 [=B,,,=B,,]2 | (3(C,,A,,C, F,) z C,,2 | %40
 (3(F,,,F,,C,) z2 (3z z x | F,,, z !fermata![F,,C,A,]4 |] %42
V:5
 A,2 G,4 | x6 | C2 C,4 | x6 | x6 | x6 | x6 | x6 | x6 | x6 | x6 | x4 C,,2 | %12
 (3(F,,,F,,C,- [F,,C,F,]2) z2 | (3(A,,,A,,C,- [A,,C,A,]4) | D,,2 D,,2 D,,2 | _G,,2 (G,,F,,G,,F,,) | %16
 E,,2 E,,2 D,,2 | _G,,2 G,,2 G,,=G,, | A,,2 A,,2 _G,,2 | F,,2 _G,,2 F,,2 | B,,2 (B,,A,,B,,A,,) | %21
 =G,,2 B,,2 A,,2 | =D,2 (D,C,D,C,) | =B,,2 (F,E,F,E,) | x6 | x4 (3=B,[=E,G,] z | [G,_B,]6- | %27
 [G,B,]6 | A,2 G,4 | x6 | C,6 | x6 | x6 | x6 | x6 | x6 | x6 | x6 | x6 | x6 | x6 | x6 |] %42

